X:1
T: Soldier's Joy
C: R-8
C: Old-Time, Bluegrass
M: C|
Z:
R: reel
K: D
FG| "D"AFDF AFDF| A2d2 d2cB| AFDF AFDF| "A"G2E2 E2FG|
 "D"AFDF AFDF| A2d2 d2 (3efg| fafd "A"egec| "D"d2d2 d2 :|
|:\
de| "D"f2fd fagf| "A"e2ec egfe| "D"f2fd fagf| "A"edcB A2de|
 "D"fdfd fagf| "A"ecec egfe| "D"fafd "A"egec| "D"d2d2 d2 :|
%
